!!!!SEGMENT: pl-cz--ii-241--006_zeidler-jozef--missa-d-agnus-dei.krn
!!!cenid: 18xx:301
!!!COM: Zeidler, Józef
!!!COM-rismID: pe30003401
!!!CDT: ~1744-1806
!!!CNT: Polish
!!!OPR: Missa D
!!!OTL: Agnus Dei
!!!OMV: 006
!!!PDT: 1818
!!!AGN: Sacred; Mass
!!!SMS-siglum: PL-CZ
!!!SMS-shelfmark: II-241
!!!SMS-shelfwork: 001-006 M
!!!NIFC-rismSourceID:
!!!NIFC-islandoraID: pl-cz:33260
!!!URL-pdf-islandora: https://repozytorium.nifc.pl/islandora/object/pl-cz%3A33260/datastream/PDF/view
!!!URL-scan:
!!!ONB-nifc: UWAGA: części Mszy: Kyrie, Gloria, Patrem, Sanctus, Benedictus, Agnus dei. Dona nobis
!!!AIN: 1 alto 1 bass 2 empty 1 organ 1 tenor 2 violn 1 vox
!!!key:
**kern	**fb	**dynam	**kern	**kern	**dynam	**kern	**text	**dynam	**kern	**text	**kern	**text	**kern	**text	**dynam	**kern	**dynam	**kern	**dynam
*part9	*	*part9	*part8	*part7	*part7	*part6	*part6	*part6	*part5	*part5	*part4	*part4	*part3	*part3	*part3	*part2	*part2	*part1	*
*staff9	*	*	*staff8	*staff7	*	*staff6	*staff6	*	*staff5	*staff5	*staff4	*staff4	*staff3	*staff3	*	*staff2	*	*staff1	*
*Iorgan	*	*	*Ivioln	*Ivioln	*	*Ibass	*	*	*Itenor	*	*Ialto	*	*Ivox	*	*	*Iempty	*	*Iempty	*
*I"Organo	*	*	*I"Violino Secundo	*I"Violino Primo	*	*I"Basso	*	*	*I"Tenore	*	*I"Alto	*	*I"Canto	*	*	*I"Cornu Secundo in D	*	*I"Cornu Primo in D	*
*I'org	*	*	*I'vl 2do	*I'vl 1mo	*	*I'B	*	*	*I'T	*	*I'A	*	*I'S	*	*	*I'cor II in D	*	*I'cor I in D	*
*group4	*	*	*group3	*group3	*	*group2	*	*	*group2	*	*group2	*	*group2	*	*	*group1	*	*group1	*
*clefF4	*	*	*clefG2	*clefG2	*	*clefF4	*	*	*clefC4	*	*clefC3	*	*clefC1	*	*	*clefG2	*	*clefG2	*
*	*	*	*	*	*	*	*	*	*	*	*	*	*	*	*	*ITrd6c10	*	*ITrd6c10	*
*k[f#c#]	*	*	*k[f#c#]	*k[f#c#]	*	*k[f#c#]	*	*	*k[f#c#]	*	*k[f#c#]	*	*k[f#c#]	*	*	*k[f#c#]	*	*k[f#c#]	*
*D:	*	*	*D:	*D:	*	*D:	*	*	*D:	*	*D:	*	*D:	*	*	*D:	*	*D:	*
*M3/2	*	*	*M3/2	*M3/2	*	*M3/2	*	*	*M3/2	*	*M3/2	*	*M3/2	*	*	*M3/2	*	*M3/2	*
=1	=1	=1	=1	=1	=1	=1	=1	=1	=1	=1	=1	=1	=1	=1	=1	=1	=1	=1	=1
*2\right	*	*	*	*	*	*	*	*	*4\right	*	*4\right	*	*	*	*	*	*	*	*
!	!	!	!LO:TX:a:t=6	!	!	!	!	!	!	!	!	!	!	!	!	!	!	!	!
!LO:TX:a:t=Solo	!	!	!LO:TX:a:t=Problem: metrum 3/4	!	!	!LO:TX:a:t=6	!	!	!	!	!	!	!LO:TX:a:t=Adagio	!	!	!LO:TX:a:t=Adagio	!	!LO:TX:a:t=36/38	!
!LO:TX:a:t=Adagio	!	!	!LO:TX:a:t=Adagio	!LO:TX:a:t=6	!	!LO:TX:a:t=Andante	!	!	!	!	!LO:TX:a:t=Andante	!	!LO:TX:a:t=6	!	!	!LO:TX:a:t=38	!	!LO:TX:a:t=Adagio	!
!	!	!	!	!	!	!	!	!	!	!	!	!	!LO:TX:a:t=problem:tempo 2/3	!	!	!	!	!	!
2D\	.	p	00r	00r	.	00r	.	.	(4f#\	A-	(4a\	A-	00r	.	.	00r	.	00r	.
.	.	.	.	.	.	.	.	.	4d\	.	4f#\)	.	.	.	.	.	.	.	.
2D\	.	.	.	.	.	.	.	.	4f#\	.	(4a\	.	.	.	.	.	.	.	.
.	.	.	.	.	.	.	.	.	4d\)	.	4f#\)	.	.	.	.	.	.	.	.
2D\	.	.	.	.	.	.	.	.	(4c#\	-gnus	(4e\	-gnus	.	.	.	.	.	.	.
.	.	.	.	.	.	.	.	.	4d\)	.	4f#\)	.	.	.	.	.	.	.	.
=2	=2	=2	=2	=2	=2	=2	=2	=2	=2	=2	=2	=2	=2	=2	=2	=2	=2	=2	=2
2D\	4 2	.	.	.	.	.	.	.	4e\	De-	4g\	De-	.	.	.	.	.	.	.
*	*	*	*	*	*	*	*	*	*8\right	*	*8\right	*	*	*	*	*	*	*	*
.	.	.	.	.	.	.	.	.	8f#\L	.	8a\L	.	.	.	.	.	.	.	.
.	.	.	.	.	.	.	.	.	8g\J	.	8b\J	.	.	.	.	.	.	.	.
*	*	*	*	*	*	*	*	*	*2\right	*	*2\right	*	*	*	*	*	*	*	*
2D\	6 4	.	.	.	.	.	.	.	2f#\	-i	2a\	-i	.	.	.	.	.	.	.
.	5 3	.	.	.	.	.	.	.	.	.	.	.	.	.	.	.	.	.	.
2D\	.	.	.	.	.	.	.	.	4r	.	4r	.	.	.	.	.	.	.	.
.	.	.	.	.	.	.	.	.	8f#\L	qui	8a\L	qui	.	.	.	.	.	.	.
.	.	.	.	.	.	.	.	.	8d\J	.	8f#\J	.	.	.	.	.	.	.	.
=3	=3	=3	=3	=3	=3	=3	=3	=3	=3	=3	=3	=3	=3	=3	=3	=3	=3	=3	=3
2A\	6 4	.	.	.	.	.	.	.	2d\	tol-	2f#\	tol-	.	.	.	.	.	.	.
2AA/	5 3	.	.	.	.	.	.	.	2c#\	-lis	2e\	-lis	.	.	.	.	.	.	.
2AA/	.	.	0r	0r	.	0r	.	.	4r	.	4r	.	0r	.	.	00ryy	.	00ryy	.
.	.	.	.	.	.	.	.	.	8g\L	qui	8b\L	qui	.	.	.	.	.	.	.
.	.	.	.	.	.	.	.	.	8e\J	.	8g\J	.	.	.	.	.	.	.	.
=4	=4	=4	=4	=4	=4	=4	=4	=4	=4	=4	=4	=4	=4	=4	=4	=4	=4	=4	=4
2D\	6 4	.	.	.	.	.	.	.	2e\	tol-	2g\	tol-	.	.	.	.	.	.	.
2D\	3	.	.	.	.	.	.	.	2d\	-lis	2f#\	-lis	.	.	.	.	.	.	.
2D\	.	.	.	.	.	.	.	.	4r	.	4r	.	.	.	.	.	.	.	.
.	.	.	.	.	.	.	.	.	4f#\	pec-	4a\	pec-	.	.	.	.	.	.	.
=5	=5	=5	=5	=5	=5	=5	=5	=5	=5	=5	=5	=5	=5	=5	=5	=5	=5	=5	=5
2D\	8 6	.	1.ryy	1.ryy	.	1.ryy	.	.	2f#\	-ca-	2a\	-ca-	1.ryy	.	.	.	.	.	.
2G\	7 5	.	.	.	.	.	.	.	2e\	.	2g\	.	.	.	.	.	.	.	.
2G#X\	.	.	.	.	.	.	.	.	2d\	-ta	2f#\	-ta	.	.	.	.	.	.	.
=6	=6	=6	=6	=6	=6	=6	=6	=6	=6	=6	=6	=6	=6	=6	=6	=6	=6	=6	=6
2A\	.	.	1.ryy	1.ryy	.	1.ryy	.	.	2d\	mun-	2f#\	mun-	1.ryy	.	.	.	.	.	.
2AA/	.	.	.	.	.	.	.	.	2c#\	-di	2e\	-di	.	.	.	00ryy	.	00ryy	.
2r	.	.	.	.	.	.	.	.	2r	.	2r	.	.	.	.	.	.	.	.
=7	=7	=7	=7	=7	=7	=7	=7	=7	=7	=7	=7	=7	=7	=7	=7	=7	=7	=7	=7
!LO:TX:a:t=Tutti	!	!	!	!LO:TX:a:t=Adagio	!	!	!	!	!	!	!LO:LB:g=original	!	!	!	!	!	!	!	!
*4\right	*	*	*4\right	*4\right	*	*	*	*	*	*	*	*	*	*	*	*	*	*	*
4r	.	.	4r	4r	.	1A	Mi-	.	1c#	Mi-	1a	Mi-	1ee	Mi-	.	.	.	.	.
!	!	!LO:HP:t=for	!	!	!	!	!	!	!	!	!	!	!	!	!	!	!	!	!
4A\	.	f	4cc#\	4ee\	.	.	.	.	.	.	.	.	.	.	.	.	.	.	.
4A\	.	.	4cc#\	4ee\	.	.	.	.	.	.	.	.	.	.	.	.	.	.	.
4A\	.	.	4cc#\	4ee\	.	.	.	.	.	.	.	.	.	.	.	.	.	.	.
*	*	*	*	*	*	*2\right	*	*	*	*	*	*	*2\right	*	*	*	*	*	*
4A\	.	.	4cc#\	4ee\	.	2A\	-se-	.	2c#\	-se-	2a\	-se-	2ee\	-se-	.	.	.	.	.
4A\	.	.	4cc#\	4ee\	.	.	.	.	.	.	.	.	.	.	.	.	.	.	.
=8	=8	=8	=8	=8	=8	=8	=8	=8	=8	=8	=8	=8	=8	=8	=8	=8	=8	=8	=8
4r	.	.	4r	4r	.	1G#X	-re-	.	1B	-re-	1b	-re-	1ee	-re-	.	.	.	.	.
4G#X\	6	.	4b\	4ee\	.	.	.	.	.	.	.	.	.	.	.	.	.	.	.
4G#\	.	.	4b\	4ee\	.	.	.	.	.	.	.	.	.	.	.	.	.	.	.
4G#\	.	.	4b\	4ee\	.	.	.	.	.	.	.	.	.	.	.	.	.	.	.
4G#\	.	.	4b\	4ee\	.	2G#\	-re	.	2B\	-re	2b\	-re	2ee\	-re	.	.	.	.	.
4G#\	.	.	4b\	4ee\	.	.	.	.	.	.	.	.	.	.	.	.	.	.	.
=9	=9	=9	=9	=9	=9	=9	=9	=9	=9	=9	=9	=9	=9	=9	=9	=9	=9	=9	=9
!	!	!	!	!	!	!	!	!	!LO:LB:g=original	!	!	!	!	!	!	!	!	!	!
4r	.	.	4r	4r	.	1Gn	{Mi-	.	1c#	Mi-	1a#X	Mi-	1ee	mi-	.	00ryy	.	00ryy	.
4Gn\	6 4 2	.	4a#X/	4ee\	.	.	.	.	.	.	.	.	.	.	.	.	.	.	.
4G\	.	.	4a#/	4ee\	.	.	.	.	.	.	.	.	.	.	.	.	.	.	.
4G\	.	.	4a#/	4ee\	.	.	.	.	.	.	.	.	.	.	.	.	.	.	.
4G\	.	.	4a#/	4ee\	.	2G\	-se-	.	2c#\	-se-	2a#\	-se-	2ee\	-se-	.	.	.	.	.
4G\	.	.	4a#/	4ee\	.	.	.	.	.	.	.	.	.	.	.	.	.	.	.
=10	=10	=10	=10	=10	=10	=10	=10	=10	=10	=10	=10	=10	=10	=10	=10	=10	=10	=10	=10
!LO:LB:g=original	!	!	!	!	!	!	!	!	!	!	!	!	!	!	!	!	!	!	!
4r	.	.	4a/	4ee\	.	1F#	-re-	.	2c#\	-re-	2f#\	-re-	2ee\	-re-	.	.	.	.	.
4F#\	7 #	.	4a/	4ee\	.	.	.	.	.	.	.	.	.	.	.	.	.	.	.
*	*	*	*	*	*	*	*	*	*	*	*	*	*4\right	*	*	*	*	*	*
4F#\	6 4	.	4b/	4dd\	.	.	.	.	(4B\	.	1f#	-re	(4dd\	.	.	.	.	.	.
4F#\	.	.	4a/	4cc#\	.	.	.	.	4A#X\)	.	.	.	4cc#\)	.	.	.	.	.	.
4F#\	.	.	4b/	4dd\	.	2F#\	-re	.	2B\	-re	.	.	2dd\	-re	.	.	.	.	.
4F#\	.	.	4b/	4dd\	.	.	.	.	.	.	.	.	.	.	.	.	.	.	.
=11	=11	=11	=11	=11	=11	=11	=11	=11	=11	=11	=11	=11	=11	=11	=11	=11	=11	=11	=11
4r	.	.	4r	4r	.	1Fn	Mi-	.	1An	mi-	1an	mi-	1dd	Mi-	.	.	.	.	.
4Fn\	6 3	.	4an/	4dd\	.	.	.	.	.	.	.	.	.	.	.	.	.	.	.
4F\	.	.	4a/	4dd\	.	.	.	.	.	.	.	.	.	.	.	.	.	.	.
4F\	.	.	4a/	4dd\	.	.	.	.	.	.	.	.	.	.	.	.	.	.	.
4F\	.	.	4a/	4dd\	.	2F\	-se-	.	2A\	-se-	2a\	-se-	2dd\	-ſe-	.	00ryy	.	00ryy	.
4F\	.	.	4a/	4dd\	.	.	.	.	.	.	.	.	.	.	.	.	.	.	.
=12	=12	=12	=12	=12	=12	=12	=12	=12	=12	=12	=12	=12	=12	=12	=12	=12	=12	=12	=12
4r	.	.	4r	4r	.	1.E	-re-	.	1.B	-re-	1.g#X	-re-	1.dd	-re-	.	.	.	.	.
4E\	7 #	.	4g#X/	4dd\	.	.	.	.	.	.	.	.	.	.	.	.	.	.	.
4E\	.	.	4g#/	4dd\	.	.	.	.	.	.	.	.	.	.	.	.	.	.	.
4E\	.	.	4g#/	4dd\	.	.	.	.	.	.	.	.	.	.	.	.	.	.	.
4E\	.	.	4g#/	4dd\	.	.	.	.	.	.	.	.	.	.	.	.	.	.	.
4E\	.	.	4g#/	4dd\	.	.	.	.	.	.	.	.	.	.	.	.	.	.	.
=13	=13	=13	=13	=13	=13	=13	=13	=13	=13	=13	=13	=13	=13	=13	=13	=13	=13	=13	=13
!	!	!	!LO:LB:g=original	!	!	!	!	!	!	!	!	!	!	!	!	!	!	!	!
4r	.	.	4a/	4cc#\	.	1.E	-re	.	1.A	-re	1.a	-re	1.cc#	-re	.	.	.	.	.
4E\	6 4	.	4a/	4cc#\	.	.	.	.	.	.	.	.	.	.	.	.	.	.	.
4E\	.	.	4a/	4cc#\	.	.	.	.	.	.	.	.	.	.	.	.	.	.	.
4E\	.	.	4a/	4cc#\	.	.	.	.	.	.	.	.	.	.	.	.	.	.	.
4E\	.	.	4g/	4cc#\	.	.	.	.	.	.	.	.	.	.	.	.	.	.	.
4E\	.	.	4g/	4cc#\	.	.	.	.	.	.	.	.	.	.	.	.	.	.	.
=14	=14	=14	=14	=14	=14	=14	=14	=14	=14	=14	=14	=14	=14	=14	=14	=14	=14	=14	=14
!	!	!	!	!LO:LB:g=original	!	!	!	!	!	!	!	!	!	!	!	!	!	!	!
4D#X\	7	.	4cc#\	4ff#\	.	1D#X	Mi-	.	1f#	Mi-	1a	Mi-	1cc#	Mi-	.	.	.	.	.
4D#\	.	.	4cc#\	4ff#\	.	.	.	.	.	.	.	.	.	.	.	.	.	.	.
4D#\	.	.	4cc#\	4ff#\	.	.	.	.	.	.	.	.	.	.	.	00ryy	.	00ryy	.
4D#\	.	.	4cc#\	4ff#\	.	.	.	.	.	.	.	.	.	.	.	.	.	.	.
4D#\	.	.	4cc#\	4ff#\	.	2D#\	-se-	.	2f#\	-se-	2a\	-se-	2cc#\	-se-	.	.	.	.	.
4D#\	.	.	4cc#\	4ff#\	.	.	.	.	.	.	.	.	.	.	.	.	.	.	.
=15	=15	=15	=15	=15	=15	=15	=15	=15	=15	=15	=15	=15	=15	=15	=15	=15	=15	=15	=15
!	!	!	!	!	!	!LO:LB:g=original	!	!	!	!	!	!	!	!	!	!	!	!	!
4E\	7 #	.	4b\	4ee\	.	1E	-re-	.	1e	-re-	2g#X\	-re-	(2b\	-re-	.	.	.	.	.
4E\	.	.	4b\	4ee\	.	.	.	.	.	.	.	.	.	.	.	.	.	.	.
4E\	.	.	4b\	4dd\	.	.	.	.	.	.	2b\	.	2dd\)	.	.	.	.	.	.
4E\	.	.	4b\	4dd\	.	.	.	.	.	.	.	.	.	.	.	.	.	.	.
4F#\	5	.	4a\	4cc#\	.	2F#\	-re}	.	2f#\	-re	2a\	-re	2cc#\	-re	.	.	.	.	.
4F#\	.	.	4a\	4cc#\	.	.	.	.	.	.	.	.	.	.	.	.	.	.	.
=16	=16	=16	=16	=16	=16	=16	=16	=16	=16	=16	=16	=16	=16	=16	=16	=16	=16	=16	=16
4D\	6	.	4f#/	4b\	.	2D\	no-	.	2f#\	no-	2b\	no-	(2dd\	no-	.	.	.	.	.
4D\	.	.	4f#/	4b\	.	.	.	.	.	.	.	.	.	.	.	.	.	.	.
4E\	4	.	4c#/	4a\	.	1E	.	.	1e	.	2a\	.	2cc#\)	.	.	.	.	.	.
4E\	.	.	4c#/	4a\	.	.	.	.	.	.	.	.	.	.	.	.	.	.	.
4EE/	#	.	4B/	4g#X/	.	.	.	.	.	.	2g#X\	.	2b\	.	.	.	.	.	.
4EE/	.	.	4B/	4g#/	.	.	.	.	.	.	.	.	.	.	.	.	.	.	.
=17	=17	=17	=17	=17	=17	=17	=17	=17	=17	=17	=17	=17	=17	=17	=17	=17	=17	=17	=17
!LO:TX:a:t=Solo	!	!	!	!	!	!	!	!	!	!	!	!	!LO:LB:g=original	!	!	!	!	!	!
2AA/	.	p	4c#/	4a\	.	2AA/	-bis	.	2e\	-biſ	2a\	-bis	2cc#\	-bis	.	00ryy	.	00ryy	.
*	*	*	*8\right	*8\right	*	*	*	*	*	*	*	*	*	*	*	*	*	*	*
.	.	.	8cc#\L	(8ee\L	.	.	.	.	.	.	.	.	.	.	.	.	.	.	.
.	.	.	8b\J	8cc#\J)	.	.	.	.	.	.	.	.	.	.	.	.	.	.	.
2r	.	.	4a\	4cc#\	.	2r	.	.	2r	.	2r	.	1r	.	.	.	.	.	.
.	6 4	.	4a\	4cc#\	.	.	.	.	.	.	.	.	.	.	.	.	.	.	.
2E\	5 #	.	4a\	(4cc#\	.	2r	.	.	2r	.	2r	.	.	.	.	.	.	.	.
.	.	.	4g#X\	4b\)	.	.	.	.	.	.	.	.	.	.	.	.	.	.	.
=18	=18	=18	=18	=18	=18	=18	=18	=18	=18	=18	=18	=18	=18	=18	=18	=18	=18	=18	=18
!LO:LB:g=original	!	!	!	!	!	!LO:TX:a:t=5	!	!	!LO:TX:a:t=11	!	!LO:TX:a:t= 11	!	!LO:TX:a:t= 5	!	!	!	!	!	!
2F#\	.	.	4f#/	4a\	.	00r	.	.	1.r	.	1.r	.	00r	.	.	.	.	.	.
.	.	.	8a/L	(8cc#\L	.	.	.	.	.	.	.	.	.	.	.	.	.	.	.
!	!	!	!LO:TX:a:t=sic!: gis?	!	!	!	!	!	!	!	!	!	!	!	!	!	!	!	!
.	.	.	8g/J	8b\J)	.	.	.	.	.	.	.	.	.	.	.	.	.	.	.
2r	.	.	4f#/	4a\	.	.	.	.	.	.	.	.	.	.	.	.	.	.	.
.	6 4	.	4g/	4a\	.	.	.	.	.	.	.	.	.	.	.	.	.	.	.
2C#/	5 3	.	4f#/	(4a\	.	.	.	.	.	.	.	.	.	.	.	.	.	.	.
.	.	.	4e/	4g#X\)	.	.	.	.	.	.	.	.	.	.	.	.	.	.	.
=19	=19	=19	=19	=19	=19	=19	=19	=19	=19	=19	=19	=19	=19	=19	=19	=19	=19	=19	=19
!	!	!	!LO:TX:a:t=problem: brakuje jednej ćwierćnuty w takcie	!	!	!	!	!	!	!	!	!	!	!	!	!	!	!	!
2D\	.	.	4d/	4f#/	.	.	.	.	1.ryy	.	1.ryy	.	.	.	.	.	.	.	.
.	.	.	8ff#\L	(8aa\L	.	.	.	.	.	.	.	.	.	.	.	.	.	.	.
.	.	.	8ee\J	8gg#X\J)	.	.	.	.	.	.	.	.	.	.	.	.	.	.	.
2r	.	.	4dd\	4ff#\	.	.	.	.	.	.	.	.	.	.	.	.	.	.	.
.	.	.	4dd\yy	4ff#\	.	.	.	.	.	.	.	.	.	.	.	.	.	.	.
.	6 4	.	8qqee/	.	.	.	.	.	.	.	.	.	.	.	.	.	.	.	.
2A\	5 3	.	4dd\	(4ff#\	.	.	.	.	.	.	.	.	.	.	.	00ryy	.	00ryy	.
.	.	.	4cc#\	4ee\)	.	.	.	.	.	.	.	.	.	.	.	.	.	.	.
=20	=20	=20	=20	=20	=20	=20	=20	=20	=20	=20	=20	=20	=20	=20	=20	=20	=20	=20	=20
!	!	!	!LO:PB:g=original	!	!	!	!	!	!	!	!	!	!	!	!	!	!	!	!
2B\	.	.	4b\	4dd\	.	.	.	.	1.ryy	.	1.ryy	.	.	.	.	.	.	.	.
.	.	.	4dd\	4bb\	.	.	.	.	.	.	.	.	.	.	.	.	.	.	.
2G#X\	6 5	.	4r	4r	.	.	.	.	.	.	.	.	.	.	.	.	.	.	.
.	.	.	4b\	4dd\	.	.	.	.	.	.	.	.	.	.	.	.	.	.	.
2A\	.	.	4a\	4cc#\	.	2r	.	.	.	.	.	.	2r	.	.	.	.	.	.
.	.	.	4cc#\	4aa\	.	.	.	.	.	.	.	.	.	.	.	.	.	.	.
=21	=21	=21	=21	=21	=21	=21	=21	=21	=21	=21	=21	=21	=21	=21	=21	=21	=21	=21	=21
2D\	.	.	8r	8r	.	1.ryy	.	.	1.ryy	.	1.ryy	.	1.ryy	.	.	.	.	.	.
.	.	.	8dd\L	8ff#\L	.	.	.	.	.	.	.	.	.	.	.	.	.	.	.
.	.	.	8cc#\	8ee\	.	.	.	.	.	.	.	.	.	.	.	.	.	.	.
.	.	.	8b\J	8dd\J	.	.	.	.	.	.	.	.	.	.	.	.	.	.	.
2E\	4	.	4a\	4cc#\	.	.	.	.	.	.	.	.	.	.	.	.	.	.	.
.	.	.	4cc#\	4aa\	.	.	.	.	.	.	.	.	.	.	.	.	.	.	.
2EE/	#	.	4g#X\	4b\	.	.	.	.	.	.	.	.	.	.	.	.	.	.	.
!	!	!	!	!LO:TX:a:t=sic!: krzyżyk niewidocznyi	!	!	!	!	!	!	!	!	!	!	!	!	!	!	!
!	!	!	!	!LO:LB:g=original	!	!	!	!	!	!	!	!	!	!	!	!	!	!	!
.	.	.	4b\	4gg#X\	.	.	.	.	.	.	.	.	.	.	.	.	.	.	.
=22	=22	=22	=22	=22	=22	=22	=22	=22	=22	=22	=22	=22	=22	=22	=22	=22	=22	=22	=22
*	*	*	*2\right	*2\right	*	*	*	*	*	*	*	*	*	*	*	*	*	*	*
2AA/	.	.	2cc#\	2aa\	.	1.ryy	.	.	1.ryy	.	1.ryy	.	1.ryy	.	.	.	.	.	.
2r	.	.	2c#/	2a/	.	.	.	.	.	.	.	.	.	.	.	00ryy	.	00ryy	.
2r	.	.	2r	2r	.	.	.	.	.	.	.	.	.	.	.	.	.	.	.
=23	=23	=23	=23	=23	=23	=23	=23	=23	=23	=23	=23	=23	=23	=23	=23	=23	=23	=23	=23
!	!	!	!LO:TX:a:t=6	!LO:TX:a:t=6	!	!	!	!LO:HP:t=for	!	!	!	!	!	!	!	!	!	!	!
*	*	*	*	*	*	*4\right	*	*	*	*	*	*	*	*	*	*	*	*	*
2A\	.	.	00r	00r	.	4c#\	A-	f	1.ryy	.	1.ryy	.	(4ee'\	Ag-	.	.	.	.	.
.	.	.	.	.	.	4A\	.	.	.	.	.	.	4cc#\)	.	.	.	.	.	.
2A\	.	.	.	.	.	4c#\	.	.	.	.	.	.	4ee\	.	.	.	.	.	.
.	.	.	.	.	.	4A\	.	.	.	.	.	.	4cc#\	.	.	.	.	.	.
2A\	.	.	.	.	.	4G#X\	-nus	.	.	.	.	.	(4b\	-nus	.	.	.	.	.
.	.	.	.	.	.	4A\	.	.	.	.	.	.	4cc#\)	.	.	.	.	.	.
=24	=24	=24	=24	=24	=24	=24	=24	=24	=24	=24	=24	=24	=24	=24	=24	=24	=24	=24	=24
2A\	4 2	.	.	.	.	4B\	De-	.	1.ryy	.	1.ryy	.	4dd\	De-	.	.	.	.	.
*	*	*	*	*	*	*8\right	*	*	*	*	*	*	*8\right	*	*	*	*	*	*
.	.	.	.	.	.	8c#\L	.	.	.	.	.	.	(8ee\L	.	.	.	.	.	.
.	6 4	.	.	.	.	8d\J	.	.	.	.	.	.	8ff#\J)	.	.	.	.	.	.
2A\	5 3	.	.	.	.	2c#\	-i	.	.	.	.	.	2ee\	-i	.	.	.	.	.
2A\	.	.	.	.	.	4r	.	.	.	.	.	.	4r	.	.	.	.	.	.
.	.	.	.	.	.	8c#\L	qui	.	.	.	.	.	(8ee\L	qui	.	.	.	.	.
.	.	.	.	.	.	8A\J	.	.	.	.	.	.	8cc#\J)	.	.	.	.	.	.
=25	=25	=25	=25	=25	=25	=25	=25	=25	=25	=25	=25	=25	=25	=25	=25	=25	=25	=25	=25
2E\	6 4	.	.	.	.	2A\	tol-	.	1.ryy	.	1.ryy	.	2cc#\	tol-	.	00ryy	.	00ryy	.
2E\	5 #	.	.	.	.	2G#X\	-lis	.	.	.	.	.	2b\	-lis	.	.	.	.	.
2E\	.	.	0r	0r	.	4r	.	.	.	.	.	.	4r	.	.	.	.	.	.
.	.	.	.	.	.	8d\L	qui	.	.	.	.	.	8ff#\L	pec-	.	.	.	.	.
.	.	.	.	.	.	8B\J	.	.	.	.	.	.	8dd\J	.	.	.	.	.	.
=26	=26	=26	=26	=26	=26	=26	=26	=26	=26	=26	=26	=26	=26	=26	=26	=26	=26	=26	=26
2A\	4	.	.	.	.	2B\	tol-	.	1.ryy	.	1.ryy	.	2dd\	-ca-	.	.	.	.	.
.	3	.	.	.	.	.	.	.	.	.	.	.	.	.	.	.	.	.	.
2AA/	.	.	.	.	.	2A\	-lis	.	.	.	.	.	2cc#\	-ta	.	.	.	.	.
2AA/	.	.	.	.	.	4r	.	.	.	.	.	.	4r	.	.	.	.	.	.
.	.	.	.	.	.	4c#\	pec	.	.	.	.	.	4ee\	pec-	.	.	.	.	.
=27	=27	=27	=27	=27	=27	=27	=27	=27	=27	=27	=27	=27	=27	=27	=27	=27	=27	=27	=27
2AA/	.	.	1.ryy	1.ryy	.	2c#\	ca-	.	1.ryy	.	1.ryy	.	(2ee\	-ca-	.	.	.	.	.
2D\	5 6	.	.	.	.	2B\	.	.	.	.	.	.	2dd\)	.	.	.	.	.	.
2D#X\	7 5	.	.	.	.	2A\	-ta	.	.	.	.	.	2cc#\	-ta	.	00ryy	.	00ryy	.
=28	=28	=28	=28	=28	=28	=28	=28	=28	=28	=28	=28	=28	=28	=28	=28	=28	=28	=28	=28
!	!	!	!	!	!	!LO:LB:g=original	!	!	!	!	!	!	!	!	!	!	!	!	!
2E\	6 4	.	1.ryy	1.ryy	.	2A\	mun-	.	1.ryy	.	1.ryy	.	2cc#\	mun-	.	.	.	.	.
2EE/	5 #	.	.	.	.	2G#X\	-di	.	.	.	.	.	2b\	-di	.	.	.	.	.
2r	.	.	.	.	.	2r	.	.	.	.	.	.	2r	.	.	.	.	.	.
=29	=29	=29	=29	=29	=29	=29	=29	=29	=29	=29	=29	=29	=29	=29	=29	=29	=29	=29	=29
!	!	!	!	!	!	!	!	!	!	!	!	!	!	!	!LO:HP:t=fo	!	!	!	!
4r	.	.	4r	4r	.	1Fn	Mi-	.	1A	Mi-	1a	Mi-	1dd#X	Mi-	f	.	.	.	.
!	!	!LO:HP:t=for	!	!	!	!	!	!	!	!	!	!	!	!	!	!	!	!	!
!LO:TX:a:t=Tutti	!	!	!	!	!	!	!	!	!	!	!	!	!	!	!	!	!	!	!
4Fn\	6!	f	4dd#X\	4aa\	.	.	.	.	.	.	.	.	.	.	.	.	.	.	.
4F\	.	.	4dd#\	4aa\	.	.	.	.	.	.	.	.	.	.	.	.	.	.	.
4F\	.	.	4dd#\	4aa\	.	.	.	.	.	.	.	.	.	.	.	.	.	.	.
4F\	.	.	4dd#\	4aa\	.	2F\	-se-	.	2A\	-se-	2a\	-se-	2dd#\	-se-	.	.	.	.	.
4F\	.	.	4dd#\	4aa\	.	.	.	.	.	.	.	.	.	.	.	.	.	.	.
=30	=30	=30	=30	=30	=30	=30	=30	=30	=30	=30	=30	=30	=30	=30	=30	=30	=30	=30	=30
!LO:LB:g=original	!	!	!	!	!	!	!	!	!	!	!	!	!LO:LB:g=original	!	!	!	!	!	!
4r	.	.	4r	4r	.	1E	-re-	.	1B	-re-	1g#X	-re-	1ee	-re-	.	.	.	.	.
4E\	#	.	4ee\	4gg#X\	.	.	.	.	.	.	.	.	.	.	.	.	.	.	.
4E\	.	.	4ee\	4gg#\	.	.	.	.	.	.	.	.	.	.	.	00ryy	.	00ryy	.
4E\	.	.	4ee\	4gg#\	.	.	.	.	.	.	.	.	.	.	.	.	.	.	.
4E\	.	.	4ee\	4gg#\	.	2E\	-re	.	2B\	-re	2g#\	-re	2ee\	-re	.	.	.	.	.
4E\	.	.	4ee\	4gg#\	.	.	.	.	.	.	.	.	.	.	.	.	.	.	.
=31	=31	=31	=31	=31	=31	=31	=31	=31	=31	=31	=31	=31	=31	=31	=31	=31	=31	=31	=31
!	!	!	!	!	!	!	!	!	!	!	!	!	!LO:N:vis=1	!	!	!	!	!	!
4r	.	.	4r	4r	.	1.F#	no-	.	1.A	no-	1.a	no-	1.dd#X	no-	.	.	.	.	.
4F#\	6|	.	4dd\	4aa\	.	.	.	.	.	.	.	.	.	.	.	.	.	.	.
4F#\	.	.	4dd\	4aa\	.	.	.	.	.	.	.	.	.	.	.	.	.	.	.
4F#\	.	.	4dd\	4aa\	.	.	.	.	.	.	.	.	.	.	.	.	.	.	.
4F#\	.	.	4dd\	4aa\	.	.	.	.	.	.	.	.	.	.	.	.	.	.	.
4F#\	.	.	4dd\	4aa\	.	.	.	.	.	.	.	.	.	.	.	.	.	.	.
=32	=32	=32	=32	=32	=32	=32	=32	=32	=32	=32	=32	=32	=32	=32	=32	=32	=32	=32	=32
!	!	!	!	!LO:TX:a:t=Problem: repetycja tego taktu	!	!	!	!	!	!	!	!	!LO:N:vis=1	!	!	!	!	!	!
4r	.	.	4r	4r	.	1.E	-bis	.	1.B	-bis	1.g#X	-bis	1.ee	-biſ	.	.	.	.	.
4E\	#	.	4ee\	4gg#X\	.	.	.	.	.	.	.	.	.	.	.	.	.	.	.
4E\	.	.	4ee\	4gg#\	.	.	.	.	.	.	.	.	.	.	.	.	.	.	.
4E\	.	.	4ee\	4gg#\	.	.	.	.	.	.	.	.	.	.	.	.	.	.	.
4E\	.	.	4ee\	4gg#\	.	.	.	.	.	.	.	.	.	.	.	.	.	.	.
4E\	.	.	4ee\	4gg#\	.	.	.	.	.	.	.	.	.	.	.	.	.	.	.
=33	=33	=33	=33	=33	=33	=33	=33	=33	=33	=33	=33	=33	=33	=33	=33	=33	=33	=33	=33
!	!	!	!	!LO:TX:a:t=Adagio	!	!	!	!	!	!	!LO:LB:g=original	!	!	!	!	!	!	!	!
4r	.	.	4r	4r	.	1D	mi-	.	1B	mi-	1g	Mi-	1ee#X	Mi-	.	00ryy	.	00ryy	.
4D\	4| 2|	.	4ee#X\	4gg#\	.	.	.	.	.	.	.	.	.	.	.	.	.	.	.
4D\	.	.	4ee#\	4gg#\	.	.	.	.	.	.	.	.	.	.	.	.	.	.	.
4D\	.	.	4ee#\	4gg#\	.	.	.	.	.	.	.	.	.	.	.	.	.	.	.
4D\	.	.	4ee#\	4gg#\	.	2D\	-se-	.	2B\	-se-	2g\	-se-	2ee#\	-ſe-	.	.	.	.	.
!	!	!	!LO:TX:a:t=problem:na skanie niewioczna ostatnia ćwierćnuta	!	!	!	!	!	!	!	!	!	!	!	!	!	!	!	!
4D\	.	.	4ee#yy\	4gg#\	.	.	.	.	.	.	.	.	.	.	.	.	.	.	.
=34	=34	=34	=34	=34	=34	=34	=34	=34	=34	=34	=34	=34	=34	=34	=34	=34	=34	=34	=34
!	!	!	!LO:LB:g=original	!	!	!	!	!	!	!	!	!	!	!	!	!	!	!	!
4C#\	5 #	.	4ee\	4gg\	.	1C#	-re-	.	1c#	-re-	4g\	-re-	4ee\	-re-	.	.	.	.	.
4C#\	.	.	4gg#X\	4bb\	.	.	.	.	.	.	4b\	.	4gg#X\	.	.	.	.	.	.
4C#\	6 4	.	4ff#\	4aa\	.	.	.	.	.	.	4a\	.	4ff#\	.	.	.	.	.	.
4C#\	.	.	4ee\	4gg\	.	.	.	.	.	.	4g\	.	4ee\	.	.	.	.	.	.
4C#\	3#	.	4ff#\	4aa\	.	2C#/	-re	.	2c#\	-re	2a\	-re	2ff#\	-re	.	.	.	.	.
4C#\	6_ 4_	.	4ff#\	4aa\	.	.	.	.	.	.	.	.	.	.	.	.	.	.	.
=35	=35	=35	=35	=35	=35	=35	=35	=35	=35	=35	=35	=35	=35	=35	=35	=35	=35	=35	=35
!	!	!	!	!	!	!	!	!	!LO:LB:g=original	!	!	!	!	!	!	!	!	!	!
4C#\	.	.	4ff#\	4aa\	.	1C#	{mi-	.	2c#\	mi-	2a\	Mi-	2ff#\	Mi-	.	.	.	.	.
4C#\	.	.	4ff#\	4aa\	.	.	.	.	.	.	.	.	.	.	.	.	.	.	.
4C#\	5n 3	.	4een\	4ggn\	.	.	.	.	2e\	.	4gn\	.	(4een\	.	.	.	.	.	.
4C#\	.	.	4dd\	4ff#\	.	.	.	.	.	.	4f#\	.	4dd\)	.	.	.	.	.	.
4C#\	.	.	4ee\	4gg\	.	2C#/	-se-	.	2A\	-se-	2g\	-se-	2ee\	-ſe-	.	00ryy	.	00ryy	.
4C#\	.	.	4ee\	4gg\	.	.	.	.	.	.	.	.	.	.	.	.	.	.	.
=36	=36	=36	=36	=36	=36	=36	=36	=36	=36	=36	=36	=36	=36	=36	=36	=36	=36	=36	=36
4D\	9 4	.	4ee\	4gg\	.	1D	-re-	.	1A	-re-	2g\	-re-	2ee\	-re-	.	.	.	.	.
4D\	.	.	4ee\	4gg\	.	.	.	.	.	.	.	.	.	.	.	.	.	.	.
4D\	8 3	.	4dd\	4ff#\	.	.	.	.	.	.	(4f#\	.	(4dd\	.	.	.	.	.	.
4D\	.	.	4cc#\	4ee\	.	.	.	.	.	.	4e\)	.	4cc#\)	.	.	.	.	.	.
4D\	.	.	4dd\	4ff#\	.	2D\	-re	.	2A\	-re	2f#\	-re	2dd\	-re	.	.	.	.	.
4D\	.	.	4dd\	4ff#\	.	.	.	.	.	.	.	.	.	.	.	.	.	.	.
=37	=37	=37	=37	=37	=37	=37	=37	=37	=37	=37	=37	=37	=37	=37	=37	=37	=37	=37	=37
4G#X\	7n	.	4dd\	4ffn\	.	2.G#X\	mi-	.	2.B\	Mi-	2.fn\	Mi-	2.dd\	Mi-	.	.	.	.	.
4G#\	.	.	4dd\	4ff\	.	.	.	.	.	.	.	.	.	.	.	.	.	.	.
4G#\	.	.	4dd\	4ff\	.	.	.	.	.	.	.	.	.	.	.	.	.	.	.
!LO:TX:a:t=Problem: część taktu niewidoczna	!	!	!	!	!	!	!	!	!	!	!	!	!	!	!	!	!	!	!
!LO:LB:g=original	!	!	!	!	!	!	!	!	!	!	!	!	!	!	!	!	!	!	!
4G#\	.	.	4dd\	4ff\	.	4G#\	-se-	.	4B\	-se-	4f\	-se-	4dd\	-ſe-	.	.	.	.	.
4G#\	.	.	4dd\	4ff\	.	4G#\	-re-	.	4B\	-re-	4f\	-re-	4dd\	-re-	.	.	.	.	.
4G#\	.	.	4dd\	4ff\	.	4G#\	-re}	.	4B\	-re	4f\	-re	4dd\	-re	.	.	.	.	.
=38	=38	=38	=38	=38	=38	=38	=38	=38	=38	=38	=38	=38	=38	=38	=38	=38	=38	=38	=38
!	!	!	!	!LO:LB:g=original	!	!	!	!	!	!	!	!	!	!	!	!	!	!	!
2A\	6n 4	.	2dd\	4ee\	.	2A\	no-	.	2A\	no-	2f#\	no-	2dd\	no-	.	.	.	.	.
.	.	.	.	4ee\	.	.	.	.	.	.	.	.	.	.	.	.	.	.	.
2AA/	5 3	.	4cc#\	4ff#X\	.	2AA/	-biſ	.	2A\	-biſ	2e\	-bis	2cc#\	-biſ	.	1ryy	.	1ryy	.
.	.	.	4cc#\	4gg\	.	.	.	.	.	.	.	.	.	.	.	.	.	.	.
2r	.	.	4dd\	4aa\	.	2r	.	.	2r	.	2r	.	2r	.	.	.	.	.	.
.	.	.	4ee\	4ff#\	.	.	.	.	.	.	.	.	.	.	.	.	.	.	.
=39	=39	=39	=39	=39	=39	=39	=39	=39	=39	=39	=39	=39	=39	=39	=39	=39	=39	=39	=39
!	!	!	!	!	!	!	!	!	!	!	!	!	!	!	!	!	!LO:HP:t=fo	!	!LO:HP:t-for
*	*	*	*	*	*	*	*	*	*	*	*	*	*	*	*	*4\right	*	*4\right	*
2D\	.	.	4ff#\	4aa\	.	1D	A-	.	1d	A-	(4a\	A-	(4ff#\	Agn-	.	4f#\	f	4f#\ 4a	f
.	.	.	4dd\	4ff#\	.	.	.	.	.	.	4f#\)	.	4dd\)	.	.	4d\	.	4d\ 4f#	.
2D\	.	.	4ff#\	4aa\	.	.	.	.	.	.	(4a\	.	(4ff#\	.	.	4f#\	.	4f#\ 4a	.
.	.	.	4dd\	4ff#\	.	.	.	.	.	.	4f#\)	.	4dd\)	.	.	4d\	.	4d\ 4f#	.
2D\	.	.	4cc#\	4ee\	.	2D\	-gnus	.	2d\	-gnus	(4e\	-gnus	(4cc#\	-us	.	4A/	.	4A/ 4e	.
.	.	.	4dd\	4ff#\	.	.	.	.	.	.	4f#\)	.	4dd\)	.	.	4d/	.	4d/ 4f#	.
=40	=40	=40	=40	=40	=40	=40	=40	=40	=40	=40	=40	=40	=40	=40	=40	=40	=40	=40	=40
!	!	!	!	!	!	!	!LO:LB:g=original	!	!	!	!	!	!LO:LB:g=original	!	!	!	!	!	!
2D\	4 2	.	4ee\	4gg\	.	2D\	De-	.	2d\	De-	4g\	De-	4ee\	De-	.	4e\	.	4e\ 4g	.
*	*	*	*	*	*	*	*	*	*	*	*	*	*	*	*	*8\right	*	*8\right	*
.	.	.	8ff#\L	8aa\L	.	.	.	.	.	.	8a\L	.	8ff#\L	.	.	8f#\L	.	8f#\L 8a	.
.	6 4	.	8gg\J	8bb\J	.	.	.	.	.	.	8b\J	.	8gg\J	.	.	8g\J	.	8g\J 8b	.
*	*	*	*	*	*	*	*	*	*	*	*	*	*	*	*	*2\right	*	*2\right	*
2D\	5 3	.	2ff#\	2aa\	.	2D\	-i	.	2e\	-i	2a\	-i	2ff#\	-i	.	2f#\	.	2f#\ 2a	.
2D\	5 3	.	4r	4r	.	4r	.	.	4r	.	4r	.	4r	.	.	4r	.	4r	.
.	.	.	8ff#\L	8aa\L	.	4D\	qui	.	4A\	qui	8a\L	qui	8ff#\L	qui	.	4d\	.	4d\ 4f#	.
.	.	.	8dd\J	8ff#\J	.	.	.	.	.	.	8f#\J	.	8dd\J	.	.	.	.	.	.
=41	=41	=41	=41	=41	=41	=41	=41	=41	=41	=41	=41	=41	=41	=41	=41	=41	=41	=41	=41
.	.	.	.	4qqgg/	.	.	.	.	.	.	.	.	.	.	.	.	.	.	.
*	*	*	*	*	*	*	*	*	*	*	*	*	*	*	*	*	*	*^	*
4r	.	.	2dd\	2ff#\	.	2A\	tol-	.	2A\	tol-	2f#\	tol-	2dd\	tol-	.	2d\	.	2f#\	2d\	.
4A\	6 4	.	.	.	.	.	.	.	.	.	.	.	.	.	.	.	.	.	.	.
4AA/	5 3	.	2cc#\	2ee\	.	2AA/	-liſ	.	2A\	-lis	2e\	-lis	2cc#\	-liſ	.	2A/	.	2e/	1A	.
4AA/	.	.	.	.	.	.	.	.	.	.	.	.	.	.	.	.	.	.	.	.
!	!	!	!	!	!	!	!	!	!	!	!	!	!	!	!	!	!	!LO:TX:a:t=problem:skreślone dźwięki 4d 2d 2A	!	!
4AA/	.	.	4r	4r	.	4r	.	.	4r	.	4r	.	4r	.	.	4r	.	4r	.	.
4AA/	.	.	8gg\L	8bb\L	.	4A\	{qui	.	4A\	qui	8b\L	qui	8gg\L	qui	.	4e\	.	4e\ 4g	.	.
.	.	.	8ee\J	8gg\J	.	.	.	.	.	.	8g\J	.	8ee\J	.	.	.	.	.	.	.
=42	=42	=42	=42	=42	=42	=42	=42	=42	=42	=42	=42	=42	=42	=42	=42	=42	=42	=42	=42	=42
!	!	!	!LO:LB:g=original	!	!	!	!	!	!	!	!LO:LB:g=original	!	!	!	!	!	!	!	!	!
4r	.	.	2ee\	2gg\	.	2d\	tol-	.	2A\	tol-	2g\	tol-	2ee\	tol-	.	2e\	.	2e\ 2g	2ryy	.
4d\	4	.	.	.	.	.	.	.	.	.	.	.	.	.	.	.	.	.	.	.
.	3	.	.	.	.	.	.	.	.	.	.	.	.	.	.	.	.	.	.	.
4D\	.	.	2dd\	2ff#\	.	2D\	-lis}	.	2A\	-lis	2f#\	-lis	2dd\	-lis	.	2d\	.	2d\ 2f#	2ryy	.
4D\	.	.	.	.	.	.	.	.	.	.	.	.	.	.	.	.	.	.	.	.
4D\	.	.	4r	4r	.	4r	.	.	4r	.	4r	.	4r	.	.	4r	.	4r	2ryy	.
4D\	.	.	4ff#\	4aa\	.	4D\	pec-	.	4d\	pec-	4a\	pec-	4ff#\	pec-	.	4f#\	.	4f#\ 4a	.	.
*	*	*	*	*	*	*	*	*	*	*	*	*	*	*	*	*	*	*v	*v	*
=43	=43	=43	=43	=43	=43	=43	=43	=43	=43	=43	=43	=43	=43	=43	=43	=43	=43	=43	=43
4r	.	.	2ff#\	2aa\	.	2D\	-ca-	.	2d\	-ca-	2a\	-ca-	2ff#\	-ca-	.	2f#\	.	2f#\ 2a	.
4D\	.	.	.	.	.	.	.	.	.	.	.	.	.	.	.	.	.	.	.
4G\	8 6	.	2ee\	2gg\	.	2G\	.	.	2B\	.	2g\	.	2ee\	.	.	2e\	.	2e\ 2g	.
4G\	.	.	.	.	.	.	.	.	.	.	.	.	.	.	.	.	.	.	.
4G#X\	7 5	.	2dd\	2ff#\	.	2G#X\	-ta	.	2B\	-ta	2f#\	-ta	2dd\	-ta	.	2d\	.	2d\ 2f#	.
4G#\	.	.	.	.	.	.	.	.	.	.	.	.	.	.	.	.	.	.	.
=44	=44	=44	=44	=44	=44	=44	=44	=44	=44	=44	=44	=44	=44	=44	=44	=44	=44	=44	=44
!	!	!	!	!	!	!	!	!	!	!	!	!	!	!	!	!	!	!LO:LB:g=original	!
2A\	6 4	.	2dd\	2ff#\	.	2A\	mun-	.	2A\	mun-	2f#\	mun-	2dd\	mun-	.	2d\	.	2d\ 2f#	.
2AA/	5 3	.	2cc#\	2ee\	.	2AA/	-di	.	2A\	-di	2e\	-di	2cc#\	-di	.	2A/	.	2A/ 2e	.
2r	.	.	2r	2r	.	2r	.	.	2r	.	2r	.	2r	.	.	2r	.	2r	.
=45	=45	=45	=45	=45	=45	=45	=45	=45	=45	=45	=45	=45	=45	=45	=45	=45	=45	=45	=45
!	!	!	!	!	!	!	!	!	!LO:TX:a:t=Problem: znak repertycji - 2 takty	!	!	!	!	!	!	!LO:TX:a:t= 4	!	!LO:TX:a:t=4	!
2B-X\	5|	.	4r	4gg#X\	.	2B-X\	pa-	.	2d\	pa-	2g#X\	pec-	2dd\	pe-	.	00r	.	00r	.
.	.	.	4dd\	4gg#\	.	.	.	.	.	.	.	.	.	.	.	.	.	.	.
2B-\	.	.	4dd\	4gg#\	.	2B-\	-ce-	.	2d\	-ce-	2g#\	-ca-	2dd\	-ca-	.	.	.	.	.
.	.	.	4dd\	4gg#\	.	.	.	.	.	.	.	.	.	.	.	.	.	.	.
2B-\	.	.	4dd\	4gg#\	.	2B-\	-ta	.	2d\	-ta	2g#\	-ta	2dd\	-ta	.	.	.	.	.
.	.	.	4dd\	4gg#\	.	.	.	.	.	.	.	.	.	.	.	.	.	.	.
=46	=46	=46	=46	=46	=46	=46	=46	=46	=46	=46	=46	=46	=46	=46	=46	=46	=46	=46	=46
!LO:LB:g=original	!	!	!	!	!	!	!	!	!	!	!	!	!	!	!	!	!	!	!
2AA/	.	.	2cc#\	2aa\	.	2A\	mun-	.	2e\	mun-	2a\	mun-	2cc#\	mun-	.	.	.	.	.
1r	.	.	4r	4r	.	2AA/	-di	.	2e\	-di	2a\	-di	2cc#\	-di	.	.	.	.	.
.	.	.	8g#X/L	8g#X/L	.	.	.	.	.	.	.	.	.	.	.	.	.	.	.
.	.	.	8a/	8a/J	.	.	.	.	.	.	.	.	.	.	.	.	.	.	.
.	.	.	8g#/	8g#/L	.	2r	.	.	2r	.	2r	.	2r	.	.	.	.	.	.
.	.	.	8a/	8a/	.	.	.	.	.	.	.	.	.	.	.	.	.	.	.
.	.	.	8g#/	8g#/	.	.	.	.	.	.	.	.	.	.	.	.	.	.	.
.	.	.	8a/J	8a/J	.	.	.	.	.	.	.	.	.	.	.	.	.	.	.
=47	=47	=47	=47	=47	=47	=47	=47	=47	=47	=47	=47	=47	=47	=47	=47	=47	=47	=47	=47
2BB-X/	6|	p	4r	4r	.	2BB-X/	pec-	.	2d\	pec-	2g\	pec-	2dd\	pe-	.	.	.	.	.
.	.	.	4g/	4dd\	p	.	.	.	.	.	.	.	.	.	.	.	.	.	.
2BB-/	.	.	4g/	4dd\	.	2BB-/	ca-	.	2d\	ca-	2g\	-ca-	2dd\	-ca-	.	.	.	.	.
.	.	.	4g/	4dd\	.	.	.	.	.	.	.	.	.	.	.	.	.	.	.
2BB-/	.	.	4g/	4dd\	.	2BB-/	-ta	.	2d\	-ta	2g\	-ta	2dd\	-ta	.	0ryy	.	0ryy	.
.	.	.	4g/	4dd\	.	.	.	.	.	.	.	.	.	.	.	.	.	.	.
=48	=48	=48	=48	=48	=48	=48	=48	=48	=48	=48	=48	=48	=48	=48	=48	=48	=48	=48	=48
2AA/	.	.	2a/	2cc#\	.	2AA/	mun-	.	2e\	mun-	2a\	mun-	2cc#\	mun-	.	.	.	.	.
2AA/	.	.	2a/	2cc#\	.	2AA/	-di	.	2e\	-di	2a\	-di	2cc#\	-di	.	.	.	.	.
2r	.	.	2r	2r	.	2r	.	.	2r	.	2r	.	2r	.	.	.	.	.	.
==	==	==	==	==	==	==	==	==	==	==	==	==	==	==	==	==	==	==	==
*-	*-	*-	*-	*-	*-	*-	*-	*-	*-	*-	*-	*-	*-	*-	*-	*-	*-	*-	*-
!!!system-decoration: g1,g2,g3,g4
!!!ENC: Anna Matuszewska
!!!END: 2020-04-18
!!!YEC: Copyright 2022 Narodowy Instytut Fryderyka Chopina (https://polishscores.org)
!!!YEM: Licence CC BY 4.0 (https://creativecommons.org/licenses/by/4.0)
